X: 103
T: Gammelvnster efter Einar Wiklund
S: efter Einar Wiklund, Stde
O: Medelpad, Stde
R: Polska
Z: Hkan Lidn, 2008-09-28
M: 3/4
L: 1/8
K: D
B | A>F DF GB | AB/A/ GA/G/ FA | d2 Ac df | ef/e/ de/d/ cB |
A>F DF GB | AB/A/ GA/G/ FA | d2 Ac d>f | e/f/e/c/ d3 :|
|: e | f2 A>f Af | fe/f/ ge/g/ fd | e2 A>e Ae | ed/e/ fd/f/ eA |
f2 A>f Af | fe/f/ ge/g/ fd | e>f ge/g/ fd/f/ | e/f/e/c/ d3 :|]
